X:144
T:RVW2/1/144 A Lady Walking
C:Mr. Floyd, Herefordshire, July 1909
C:Transcribed by Simon Furey and Lewis Jones
L:1/8
Q:1/4=90
M:3/4
I:linebreak $
K:G
"^(editorial suggestion) " D | GB G3 F | EG D2 !fermata!G, !fermata!G | ED C2 B,A, | B,C D3 C |$ B,D c2 cd | G/A/ B G !fermata!D2 C | B,D cABG | F/G/A G3 |]

